assets/icons/qvision/hardware.svg

<svg xmlns="http://www.w3.org/2000/svg" enable-background="new 0 0 24 24" height="24" viewBox="0 0 24 24" width="24"><g><rect fill="none" height="24" width="24"/></g><g><g><g><path d="M18,3l-3,3V3H9C6.24,3,4,5.24,4,8h5v3h6V8l3,3h2V3H18z"/></g><g><path d="M9,13v7c0,0.55,0.45,1,1,1h4c0.55,0,1-0.45,1-1v-7H9z"/></g></g></g></svg>

<svg width="24" height="24" viewBox="0 0 24 24" fill="none" xmlns="http://www.w3.org/2000/svg">
<g clip-path="url(#clip0_147_5313)">
<path d="M18 3L15 6V3H9C6.24 3 4 5.24 4 8H9V11H15V8L18 11H20V3H18Z" fill="#323232"/>
<path d="M9 13V20C9 20.55 9.45 21 10 21H14C14.55 21 15 20.55 15 20V13H9Z" fill="#323232"/>
</g>
<defs>
<clipPath id="clip0_147_5313">
<rect width="24" height="24" fill="white"/>
</clipPath>
</defs>
</svg>
